Newaita-dark/apps/22/nextcloud.svg

<svg height="22" viewBox="0 0 22 22" width="22" xmlns="http://www.w3.org/2000/svg" xmlns:xlink="http://www.w3.org/1999/xlink"><linearGradient id="a" gradientUnits="userSpaceOnUse" x1="10.9151136" x2="10.9151136" y1="19.27333715" y2="20.18293042919"><stop offset="0" stop-opacity=".27451"/><stop offset="1" stop-opacity="0"/></linearGradient><linearGradient id="b"><stop offset="0" stop-opacity=".313726"/><stop offset=".222222" stop-opacity=".27451"/><stop offset="1" stop-opacity="0"/></linearGradient><radialGradient id="c" cx="450.908936" cy="189.579361" gradientTransform="matrix(.00000012 -.0537161 -.0966889 -.00000007 35.839821 43.721791)" gradientUnits="userSpaceOnUse" r="21.166656" xlink:href="#b"/><radialGradient id="d" cx="450.908936" cy="189.579361" gradientTransform="matrix(-.00000012 .0537161 .0966889 .00000007 -14.009609 -5.175142)" gradientUnits="userSpaceOnUse" r="21.166656" xlink:href="#b"/><radialGradient id="e" cx="450.908936" cy="189.579361" gradientTransform="matrix(-.00000012 -.0537161 .0966889 -.00000007 -14.009609 43.721791)" gradientUnits="userSpaceOnUse" r="21.166656" xlink:href="#b"/><radialGradient id="f" cx="450.908936" cy="189.579361" gradientTransform="matrix(.00000012 .0537161 -.0966889 .00000007 35.839819 -5.175142)" gradientUnits="userSpaceOnUse" r="21.166656" xlink:href="#b"/><linearGradient id="g" gradientUnits="userSpaceOnUse" x1="7.27674417081" x2="7.27674417081" y1="19.27333515" y2="1.99106765838"><stop offset="0" stop-color="#2979ff"/><stop offset="1" stop-color="#448aff"/></linearGradient><linearGradient id="h" gradientUnits="userSpaceOnUse" x1="10.91510330644" x2="10.915104" y1="19.27332401286" y2="1.99107567177"><stop offset="0" stop-color="#e0e0e0"/><stop offset="1" stop-color="#eee"/></linearGradient><path d="m4.09375 19.207031h13.644531v1.007813h-13.644531zm0 0" fill="url(#a)"/><path d="m17.738281 19.273438h1.816407v-.910157h-1.816407zm0 0" fill="url(#c)"/><path d="m4.09375 19.273438h-1.820312v.910156h1.820312zm0 0" fill="url(#d)"/><path d="m4.09375 19.273438h-1.820312v-.910157h1.820312zm0 0" fill="url(#e)"/><path d="m17.738281 19.273438h1.816407v.910156h-1.816407zm0 0" fill="url(#f)"/><path d="m3.183594 1.992188h15.464844c.5 0 .90625.40625.90625.910156v15.460937c0 .503907-.40625.910157-.90625.910157h-15.464844c-.503906 0-.910156-.40625-.910156-.910157v-15.460937c0-.503906.40625-.910156.910156-.910156zm0 0" fill="url(#g)"/><path d="m3.183594 1.992188c-.503906 0-.910156.40625-.910156.910156v.113281c0-.503906.40625-.910156.910156-.910156h15.464844c.503906 0 .90625.40625.90625.910156v-.113281c0-.503906-.402344-.910156-.90625-.910156zm0 0" fill="#e6e6e6" fill-opacity=".392157"/><path d="m3.183594 19.273438c-.503906 0-.910156-.40625-.910156-.910157v-.113281c0 .503906.40625.910156.910156.910156h15.464844c.503906 0 .90625-.40625.90625-.910156v.113281c0 .503907-.402344.910157-.90625.910157zm0 0" fill-opacity=".196078"/><path d="m74.083834-168.640791h359.874725c11.635253 0 21.088895 9.453643 21.088895 21.179796v359.783824c0 11.726153-9.453642 21.179796-21.088895 21.179796h-359.874725c-11.726152 0-21.179795-9.453643-21.179795-21.179796v-359.783824c0-11.726153 9.453643-21.179796 21.179795-21.179796zm0 0" fill="none" stroke="#212121" stroke-linecap="round" stroke-width="3" transform="matrix(.0429729 0 0 .0429729 0 9.239163)"/><path d="m10.914062 7.902344c-1.167968 0-2.160156.730468-2.550781 1.761718-.320312-.511718-.890625-.851562-1.542969-.851562-1.007812 0-1.816406.8125-1.816406 1.820312 0 1.007813.808594 1.820313 1.816406 1.820313.652344 0 1.222657-.339844 1.542969-.851563.390625 1.03125 1.382813 1.757813 2.550781 1.757813 1.171876 0 2.164063-.726563 2.554688-1.757813.320312.511719.890625.851563 1.539062.851563 1.007813 0 1.820313-.8125 1.820313-1.820313 0-1.007812-.8125-1.820312-1.820313-1.820312-.648437 0-1.21875.339844-1.539062.851562-.390625-1.03125-1.382812-1.761718-2.554688-1.761718zm0 1.367187c.757813 0 1.367188.605469 1.367188 1.363281 0 .753907-.609375 1.363282-1.367188 1.363282-.753906 0-1.363281-.609375-1.363281-1.363282 0-.757812.609375-1.363281 1.363281-1.363281zm-4.09375.90625c.253907 0 .457032.203125.457032.457031 0 .25-.203125.453126-.457032.453126-.25 0-.453124-.203126-.453124-.453126 0-.253906.203124-.457031.453124-.457031zm8.1875 0c.253907 0 .457032.203125.457032.457031 0 .25-.203125.453126-.457032.453126-.25 0-.453124-.203126-.453124-.453126 0-.253906.203124-.457031.453124-.457031zm0 0" fill="url(#h)"/><path d="m10.914062 7.902344c-1.167968 0-2.160156.730468-2.550781 1.761718-.320312-.511718-.890625-.851562-1.542969-.851562-1.007812 0-1.816406.8125-1.816406 1.820312 0 .039063 0 .074219.003906.113282.058594-.953125.84375-1.707032 1.8125-1.707032.652344 0 1.222657.339844 1.542969.851563.390625-1.03125 1.382813-1.761719 2.550781-1.761719 1.171876 0 2.164063.730469 2.554688 1.761719.320312-.511719.890625-.851563 1.539062-.851563.96875 0 1.757813.753907 1.816407 1.707032 0-.039063.003906-.074219.003906-.113282 0-1.007812-.8125-1.820312-1.820313-1.820312-.648437 0-1.21875.339844-1.539062.851562-.390625-1.03125-1.382812-1.761718-2.554688-1.761718zm-4.53125 2.84375c-.011718.035156-.015624.074218-.015624.113281 0 .253906.203124.453125.453124.453125.253907 0 .457032-.199219.457032-.453125 0-.039063-.003906-.078125-.015625-.113281-.050781.195312-.226563.339844-.441407.339844-.210937 0-.390624-.144532-.4375-.339844zm3.171876 0c-.003907.039062-.003907.074218-.003907.113281 0 .757813.609375 1.363281 1.363281 1.363281.757813 0 1.367188-.605468 1.367188-1.363281 0-.039063-.003906-.074219-.007812-.113281-.054688.703125-.640626 1.25-1.359376 1.25-.714843 0-1.300781-.546875-1.359374-1.25zm5.011718 0c-.007812.035156-.011718.074218-.011718.113281 0 .253906.203124.453125.453124.453125.253907 0 .457032-.199219.457032-.453125 0-.039063-.007813-.078125-.015625-.113281-.050781.195312-.226563.339844-.441407.339844-.210937 0-.390624-.144532-.441406-.339844zm0 0" fill="#fff" fill-opacity=".987097"/><path d="m10.914062 9.265625c-.753906 0-1.363281.605469-1.363281 1.363281 0 .046875.003907.09375.007813.140625.070312-.6875.648437-1.222656 1.355468-1.222656.707032 0 1.289063.535156 1.359376 1.222656.003906-.046875.007812-.09375.007812-.140625 0-.757812-.609375-1.363281-1.367188-1.363281zm-4.09375.90625c-.25 0-.453124.203125-.453124.457031 0 .050782.007812.097656.023437.140625.058594-.179687.230469-.3125.429687-.3125.203126 0 .375.132813.433594.3125.015625-.042969.023438-.089843.023438-.140625 0-.253906-.203125-.457031-.457032-.457031zm8.1875 0c-.25 0-.453124.203125-.453124.457031 0 .050782.007812.097656.019531.140625.0625-.179687.230469-.3125.433593-.3125.203126 0 .375.132813.433594.3125.011719-.042969.023438-.089843.023438-.140625 0-.253906-.203125-.457031-.457032-.457031zm-10 .597656c-.003906.046875-.003906.09375-.003906.144531 0 1.007813.808594 1.816407 1.816406 1.816407.652344 0 1.222657-.335938 1.542969-.847657.390625 1.03125 1.382813 1.757813 2.550781 1.757813 1.171876 0 2.164063-.726563 2.554688-1.757813.320312.511719.890625.847657 1.539062.847657 1.007813 0 1.820313-.808594 1.820313-1.816407 0-.050781-.003906-.097656-.007813-.144531-.070312.941407-.851562 1.679688-1.8125 1.679688-.648437 0-1.21875-.339844-1.539062-.851563-.390625 1.03125-1.382812 1.757813-2.554688 1.757813-1.167968 0-2.160156-.726563-2.550781-1.757813-.320312.511719-.890625.851563-1.542969.851563-.957031 0-1.738281-.738281-1.8125-1.679688zm0 0" fill-opacity=".235294"/><path d="m959.908384 695.023143c-102.724627 0-189.989025 64.245836-224.345088 154.945841-28.171971-45.006442-78.331822-74.896216-135.706446-74.896216-88.638641 0-159.755691 71.46061-159.755691 160.099251s71.11705 160.099251 159.755691 160.099251c57.374624 0 107.534475-29.889775 135.706446-74.896216 34.356063 90.700004 121.620461 154.60228 224.345088 154.60228 103.068187 0 190.332586-63.902276 224.688648-154.60228 28.171971 45.006441 78.331822 74.896216 135.362886 74.896216 88.638641 0 160.099251-71.46061 160.099251-160.099251s-71.46061-160.099251-160.099251-160.099251c-57.031064 0-107.190915 29.889774-135.362886 74.896216-34.356062-90.700005-121.620461-154.945841-224.688648-154.945841zm0 120.246218c66.650761 0 120.246218 53.251897 120.246218 119.902658 0 66.3072-53.595457 119.902658-120.246218 119.902658-66.307201 0-119.902658-53.595458-119.902658-119.902658 0-66.650761 53.595457-119.902658 119.902658-119.902658zm-360.051534 79.706065c22.33144 0 40.196593 17.865152 40.196593 40.196593 0 21.98788-17.865153 39.853032-40.196593 39.853032-21.98788 0-39.853033-17.865152-39.853033-39.853032 0-22.331441 17.865153-40.196593 39.853033-40.196593zm720.103068 0c22.33144 0 40.196593 17.865152 40.196593 40.196593 0 21.98788-17.865153 39.853032-40.196593 39.853032-21.98788 0-39.853033-17.865152-39.853033-39.853032 0-22.331441 17.865153-40.196593 39.853033-40.196593zm0 0" fill="none" stroke="#212121" stroke-linecap="round" stroke-linejoin="round" stroke-width="11.338583" transform="scale(.0113699)"/></svg>

<?xml version="1.0" encoding="UTF-8"?>
<svg xmlns="http://www.w3.org/2000/svg" xmlns:xlink="http://www.w3.org/1999/xlink" width="22px" height="22px" viewBox="0 0 22 22" version="1.1">
<defs>
<linearGradient id="linear0" gradientUnits="userSpaceOnUse" x1="254" y1="233.5" x2="254" y2="254.666672" gradientTransform="matrix(0.0429729,0,0,0.0429729,-0.00000262285,9.239165)">
<stop offset="0" style="stop-color:rgb(0%,0%,0%);stop-opacity:0.27451;"/>
<stop offset="1" style="stop-color:rgb(0%,0%,0%);stop-opacity:0;"/>
</linearGradient>
<radialGradient id="radial0" gradientUnits="userSpaceOnUse" cx="450.908936" cy="189.579361" fx="450.908936" fy="189.579361" r="21.166656" gradientTransform="matrix(0.000000119742,-0.0537161,-0.0966889,-0.0000000698078,35.839821,43.721791)">
<stop offset="0" style="stop-color:rgb(0%,0%,0%);stop-opacity:0.313726;"/>
<stop offset="0.222222" style="stop-color:rgb(0%,0%,0%);stop-opacity:0.27451;"/>
<stop offset="1" style="stop-color:rgb(0%,0%,0%);stop-opacity:0;"/>
</radialGradient>
<radialGradient id="radial1" gradientUnits="userSpaceOnUse" cx="450.908936" cy="189.579361" fx="450.908936" fy="189.579361" r="21.166656" gradientTransform="matrix(-0.000000119742,0.0537161,0.0966889,0.0000000698078,-14.009609,-5.175142)">
<stop offset="0" style="stop-color:rgb(0%,0%,0%);stop-opacity:0.313726;"/>
<stop offset="0.222222" style="stop-color:rgb(0%,0%,0%);stop-opacity:0.27451;"/>
<stop offset="1" style="stop-color:rgb(0%,0%,0%);stop-opacity:0;"/>
</radialGradient>
<radialGradient id="radial2" gradientUnits="userSpaceOnUse" cx="450.908936" cy="189.579361" fx="450.908936" fy="189.579361" r="21.166656" gradientTransform="matrix(-0.000000119742,-0.0537161,0.0966889,-0.0000000698078,-14.009609,43.721791)">
<stop offset="0" style="stop-color:rgb(0%,0%,0%);stop-opacity:0.313726;"/>
<stop offset="0.222222" style="stop-color:rgb(0%,0%,0%);stop-opacity:0.27451;"/>
<stop offset="1" style="stop-color:rgb(0%,0%,0%);stop-opacity:0;"/>
</radialGradient>
<radialGradient id="radial3" gradientUnits="userSpaceOnUse" cx="450.908936" cy="189.579361" fx="450.908936" fy="189.579361" r="21.166656" gradientTransform="matrix(0.000000119742,0.0537161,-0.0966889,0.0000000698078,35.839819,-5.175142)">
<stop offset="0" style="stop-color:rgb(0%,0%,0%);stop-opacity:0.313726;"/>
<stop offset="0.222222" style="stop-color:rgb(0%,0%,0%);stop-opacity:0.27451;"/>
<stop offset="1" style="stop-color:rgb(0%,0%,0%);stop-opacity:0;"/>
</radialGradient>
<linearGradient id="linear1" gradientUnits="userSpaceOnUse" x1="169.333328" y1="233.5" x2="169.333328" y2="-168.666656" gradientTransform="matrix(0.0429729,0,0,0.0429729,0,9.239163)">
<stop offset="0" style="stop-color:rgb(16.078432%,47.450981%,100%);stop-opacity:1;"/>
<stop offset="1" style="stop-color:rgb(26.666668%,54.11765%,100%);stop-opacity:1;"/>
</linearGradient>
<linearGradient id="linear2" gradientUnits="userSpaceOnUse" x1="959.999939" y1="1695.118164" x2="960" y2="175.118134" gradientTransform="matrix(0.0113699,0,0,0.0113699,0,0)">
<stop offset="0" style="stop-color:rgb(87.843138%,87.843138%,87.843138%);stop-opacity:1;"/>
<stop offset="1" style="stop-color:rgb(93.333334%,93.333334%,93.333334%);stop-opacity:1;"/>
</linearGradient>
</defs>
<g id="surface1">
<path style=" stroke:none;fill-rule:nonzero;fill:url(#linear0);" d="M 4.09375 19.207031 L 17.738281 19.207031 L 17.738281 20.214844 L 4.09375 20.214844 Z M 4.09375 19.207031 "/>
<path style=" stroke:none;fill-rule:nonzero;fill:url(#radial0);" d="M 17.738281 19.273438 L 19.554688 19.273438 L 19.554688 18.363281 L 17.738281 18.363281 Z M 17.738281 19.273438 "/>
<path style=" stroke:none;fill-rule:nonzero;fill:url(#radial1);" d="M 4.09375 19.273438 L 2.273438 19.273438 L 2.273438 20.183594 L 4.09375 20.183594 Z M 4.09375 19.273438 "/>
<path style=" stroke:none;fill-rule:nonzero;fill:url(#radial2);" d="M 4.09375 19.273438 L 2.273438 19.273438 L 2.273438 18.363281 L 4.09375 18.363281 Z M 4.09375 19.273438 "/>
<path style=" stroke:none;fill-rule:nonzero;fill:url(#radial3);" d="M 17.738281 19.273438 L 19.554688 19.273438 L 19.554688 20.183594 L 17.738281 20.183594 Z M 17.738281 19.273438 "/>
<path style=" stroke:none;fill-rule:nonzero;fill:url(#linear1);" d="M 3.183594 1.992188 L 18.648438 1.992188 C 19.148438 1.992188 19.554688 2.398438 19.554688 2.902344 L 19.554688 18.363281 C 19.554688 18.867188 19.148438 19.273438 18.648438 19.273438 L 3.183594 19.273438 C 2.679688 19.273438 2.273438 18.867188 2.273438 18.363281 L 2.273438 2.902344 C 2.273438 2.398438 2.679688 1.992188 3.183594 1.992188 Z M 3.183594 1.992188 "/>
<path style=" stroke:none;fill-rule:nonzero;fill:rgb(90.196079%,90.196079%,90.196079%);fill-opacity:0.392157;" d="M 3.183594 1.992188 C 2.679688 1.992188 2.273438 2.398438 2.273438 2.902344 L 2.273438 3.015625 C 2.273438 2.511719 2.679688 2.105469 3.183594 2.105469 L 18.648438 2.105469 C 19.152344 2.105469 19.554688 2.511719 19.554688 3.015625 L 19.554688 2.902344 C 19.554688 2.398438 19.152344 1.992188 18.648438 1.992188 Z M 3.183594 1.992188 "/>
<path style=" stroke:none;fill-rule:nonzero;fill:rgb(0%,0%,0%);fill-opacity:0.196078;" d="M 3.183594 19.273438 C 2.679688 19.273438 2.273438 18.867188 2.273438 18.363281 L 2.273438 18.25 C 2.273438 18.753906 2.679688 19.160156 3.183594 19.160156 L 18.648438 19.160156 C 19.152344 19.160156 19.554688 18.753906 19.554688 18.25 L 19.554688 18.363281 C 19.554688 18.867188 19.152344 19.273438 18.648438 19.273438 Z M 3.183594 19.273438 "/>
<path style="fill:none;stroke-width:3;stroke-linecap:round;stroke-linejoin:miter;stroke:rgb(12.941177%,12.941177%,12.941177%);stroke-opacity:1;stroke-miterlimit:4;" d="M 74.083834 -168.640791 L 433.958559 -168.640791 C 445.593812 -168.640791 455.047454 -159.187148 455.047454 -147.460995 L 455.047454 212.322829 C 455.047454 224.048982 445.593812 233.502625 433.958559 233.502625 L 74.083834 233.502625 C 62.357682 233.502625 52.904039 224.048982 52.904039 212.322829 L 52.904039 -147.460995 C 52.904039 -159.187148 62.357682 -168.640791 74.083834 -168.640791 Z M 74.083834 -168.640791 " transform="matrix(0.0429729,0,0,0.0429729,0,9.239163)"/>
<path style=" stroke:none;fill-rule:nonzero;fill:url(#linear2);" d="M 10.914062 7.902344 C 9.746094 7.902344 8.753906 8.632812 8.363281 9.664062 C 8.042969 9.152344 7.472656 8.8125 6.820312 8.8125 C 5.8125 8.8125 5.003906 9.625 5.003906 10.632812 C 5.003906 11.640625 5.8125 12.453125 6.820312 12.453125 C 7.472656 12.453125 8.042969 12.113281 8.363281 11.601562 C 8.753906 12.632812 9.746094 13.359375 10.914062 13.359375 C 12.085938 13.359375 13.078125 12.632812 13.46875 11.601562 C 13.789062 12.113281 14.359375 12.453125 15.007812 12.453125 C 16.015625 12.453125 16.828125 11.640625 16.828125 10.632812 C 16.828125 9.625 16.015625 8.8125 15.007812 8.8125 C 14.359375 8.8125 13.789062 9.152344 13.46875 9.664062 C 13.078125 8.632812 12.085938 7.902344 10.914062 7.902344 Z M 10.914062 9.269531 C 11.671875 9.269531 12.28125 9.875 12.28125 10.632812 C 12.28125 11.386719 11.671875 11.996094 10.914062 11.996094 C 10.160156 11.996094 9.550781 11.386719 9.550781 10.632812 C 9.550781 9.875 10.160156 9.269531 10.914062 9.269531 Z M 6.820312 10.175781 C 7.074219 10.175781 7.277344 10.378906 7.277344 10.632812 C 7.277344 10.882812 7.074219 11.085938 6.820312 11.085938 C 6.570312 11.085938 6.367188 10.882812 6.367188 10.632812 C 6.367188 10.378906 6.570312 10.175781 6.820312 10.175781 Z M 15.007812 10.175781 C 15.261719 10.175781 15.464844 10.378906 15.464844 10.632812 C 15.464844 10.882812 15.261719 11.085938 15.007812 11.085938 C 14.757812 11.085938 14.554688 10.882812 14.554688 10.632812 C 14.554688 10.378906 14.757812 10.175781 15.007812 10.175781 Z M 15.007812 10.175781 "/>
<path style=" stroke:none;fill-rule:nonzero;fill:rgb(100%,100%,100%);fill-opacity:0.987097;" d="M 10.914062 7.902344 C 9.746094 7.902344 8.753906 8.632812 8.363281 9.664062 C 8.042969 9.152344 7.472656 8.8125 6.820312 8.8125 C 5.8125 8.8125 5.003906 9.625 5.003906 10.632812 C 5.003906 10.671875 5.003906 10.707031 5.007812 10.746094 C 5.066406 9.792969 5.851562 9.039062 6.820312 9.039062 C 7.472656 9.039062 8.042969 9.378906 8.363281 9.890625 C 8.753906 8.859375 9.746094 8.128906 10.914062 8.128906 C 12.085938 8.128906 13.078125 8.859375 13.46875 9.890625 C 13.789062 9.378906 14.359375 9.039062 15.007812 9.039062 C 15.976562 9.039062 16.765625 9.792969 16.824219 10.746094 C 16.824219 10.707031 16.828125 10.671875 16.828125 10.632812 C 16.828125 9.625 16.015625 8.8125 15.007812 8.8125 C 14.359375 8.8125 13.789062 9.152344 13.46875 9.664062 C 13.078125 8.632812 12.085938 7.902344 10.914062 7.902344 Z M 6.382812 10.746094 C 6.371094 10.78125 6.367188 10.820312 6.367188 10.859375 C 6.367188 11.113281 6.570312 11.3125 6.820312 11.3125 C 7.074219 11.3125 7.277344 11.113281 7.277344 10.859375 C 7.277344 10.820312 7.273438 10.78125 7.261719 10.746094 C 7.210938 10.941406 7.035156 11.085938 6.820312 11.085938 C 6.609375 11.085938 6.429688 10.941406 6.382812 10.746094 Z M 9.554688 10.746094 C 9.550781 10.785156 9.550781 10.820312 9.550781 10.859375 C 9.550781 11.617188 10.160156 12.222656 10.914062 12.222656 C 11.671875 12.222656 12.28125 11.617188 12.28125 10.859375 C 12.28125 10.820312 12.277344 10.785156 12.273438 10.746094 C 12.21875 11.449219 11.632812 11.996094 10.914062 11.996094 C 10.199219 11.996094 9.613281 11.449219 9.554688 10.746094 Z M 14.566406 10.746094 C 14.558594 10.78125 14.554688 10.820312 14.554688 10.859375 C 14.554688 11.113281 14.757812 11.3125 15.007812 11.3125 C 15.261719 11.3125 15.464844 11.113281 15.464844 10.859375 C 15.464844 10.820312 15.457031 10.78125 15.449219 10.746094 C 15.398438 10.941406 15.222656 11.085938 15.007812 11.085938 C 14.796875 11.085938 14.617188 10.941406 14.566406 10.746094 Z M 14.566406 10.746094 "/>
<path style=" stroke:none;fill-rule:nonzero;fill:rgb(0%,0%,0%);fill-opacity:0.235294;" d="M 10.914062 9.265625 C 10.160156 9.265625 9.550781 9.871094 9.550781 10.628906 C 9.550781 10.675781 9.554688 10.722656 9.558594 10.769531 C 9.628906 10.082031 10.207031 9.546875 10.914062 9.546875 C 11.621094 9.546875 12.203125 10.082031 12.273438 10.769531 C 12.277344 10.722656 12.28125 10.675781 12.28125 10.628906 C 12.28125 9.871094 11.671875 9.265625 10.914062 9.265625 Z M 6.820312 10.171875 C 6.570312 10.171875 6.367188 10.375 6.367188 10.628906 C 6.367188 10.679688 6.375 10.726562 6.390625 10.769531 C 6.449219 10.589844 6.621094 10.457031 6.820312 10.457031 C 7.023438 10.457031 7.195312 10.589844 7.253906 10.769531 C 7.269531 10.726562 7.277344 10.679688 7.277344 10.628906 C 7.277344 10.375 7.074219 10.171875 6.820312 10.171875 Z M 15.007812 10.171875 C 14.757812 10.171875 14.554688 10.375 14.554688 10.628906 C 14.554688 10.679688 14.5625 10.726562 14.574219 10.769531 C 14.636719 10.589844 14.804688 10.457031 15.007812 10.457031 C 15.210938 10.457031 15.382812 10.589844 15.441406 10.769531 C 15.453125 10.726562 15.464844 10.679688 15.464844 10.628906 C 15.464844 10.375 15.261719 10.171875 15.007812 10.171875 Z M 5.007812 10.769531 C 5.003906 10.816406 5.003906 10.863281 5.003906 10.914062 C 5.003906 11.921875 5.8125 12.730469 6.820312 12.730469 C 7.472656 12.730469 8.042969 12.394531 8.363281 11.882812 C 8.753906 12.914062 9.746094 13.640625 10.914062 13.640625 C 12.085938 13.640625 13.078125 12.914062 13.46875 11.882812 C 13.789062 12.394531 14.359375 12.730469 15.007812 12.730469 C 16.015625 12.730469 16.828125 11.921875 16.828125 10.914062 C 16.828125 10.863281 16.824219 10.816406 16.820312 10.769531 C 16.75 11.710938 15.96875 12.449219 15.007812 12.449219 C 14.359375 12.449219 13.789062 12.109375 13.46875 11.597656 C 13.078125 12.628906 12.085938 13.355469 10.914062 13.355469 C 9.746094 13.355469 8.753906 12.628906 8.363281 11.597656 C 8.042969 12.109375 7.472656 12.449219 6.820312 12.449219 C 5.863281 12.449219 5.082031 11.710938 5.007812 10.769531 Z M 5.007812 10.769531 "/>
<path style="fill:none;stroke-width:11.338583;stroke-linecap:round;stroke-linejoin:round;stroke:rgb(12.941177%,12.941177%,12.941177%);stroke-opacity:1;stroke-miterlimit:4;" d="M 959.908384 695.023143 C 857.183757 695.023143 769.919359 759.268979 735.563296 849.968984 C 707.391325 804.962542 657.231474 775.072768 599.85685 775.072768 C 511.218209 775.072768 440.101159 846.533378 440.101159 935.172019 C 440.101159 1023.81066 511.218209 1095.27127 599.85685 1095.27127 C 657.231474 1095.27127 707.391325 1065.381495 735.563296 1020.375054 C 769.919359 1111.075058 857.183757 1174.977334 959.908384 1174.977334 C 1062.976571 1174.977334 1150.24097 1111.075058 1184.597032 1020.375054 C 1212.769003 1065.381495 1262.928854 1095.27127 1319.959918 1095.27127 C 1408.598559 1095.27127 1480.059169 1023.81066 1480.059169 935.172019 C 1480.059169 846.533378 1408.598559 775.072768 1319.959918 775.072768 C 1262.928854 775.072768 1212.769003 804.962542 1184.597032 849.968984 C 1150.24097 759.268979 1062.976571 695.023143 959.908384 695.023143 Z M 959.908384 815.269361 C 1026.559145 815.269361 1080.154602 868.521258 1080.154602 935.172019 C 1080.154602 1001.479219 1026.559145 1055.074677 959.908384 1055.074677 C 893.601183 1055.074677 840.005726 1001.479219 840.005726 935.172019 C 840.005726 868.521258 893.601183 815.269361 959.908384 815.269361 Z M 599.85685 894.975426 C 622.18829 894.975426 640.053443 912.840578 640.053443 935.172019 C 640.053443 957.159899 622.18829 975.025051 599.85685 975.025051 C 577.86897 975.025051 560.003817 957.159899 560.003817 935.172019 C 560.003817 912.840578 577.86897 894.975426 599.85685 894.975426 Z M 1319.959918 894.975426 C 1342.291358 894.975426 1360.156511 912.840578 1360.156511 935.172019 C 1360.156511 957.159899 1342.291358 975.025051 1319.959918 975.025051 C 1297.972038 975.025051 1280.106885 957.159899 1280.106885 935.172019 C 1280.106885 912.840578 1297.972038 894.975426 1319.959918 894.975426 Z M 1319.959918 894.975426 " transform="matrix(0.0113699,0,0,0.0113699,0,0)"/>
</g>
</svg>
